X:2065
L:1/8
M:2/4
K:F
"F" c/c/c dc |"C7" BG G/^F/G | dc BG |"F" FF/d/ c2 | c/c/c dc |"C7" BG G/^F/G | dc B>G | 
"F" FF F z ::[K:C]"C" e>d fe |"Dm" dA A/A/A |"G7" ag{/a} gf |"C" fe e2 | e>d fe |"Dm/F" dA A/A/A | 
"G7" cB AB |"C" cc c z ::[K:F]"F" .c !>!c2 .A | F2 z c |"Gm/Bb" .d !>!d2 .B | G2 z F | 
"C7" E/E/E B/B/B |"F" A/A/A F/F/F |"C7" E/F/G/A/ Be |"F" ff f z ::[K:Bb]"Bb" !>!d3 B | !>!F3 B | 
"F7" AA{/A} ee |"Bb" .dd/B/ F2 | !>!d3 B | !>!F3 B |"F7" AA f/e/d/c/ |"Bb" BB B z :|

